assets/natsio/mono.svg

<svg viewBox="0 0 24 24" xmlns="http://www.w3.org/2000/svg"><path d="m12.004 0h-11.6v18.807h9.938l1.714 1.602v-.026l3.91 3.617v-5.193h7.63v-18.807h-11.593zm7.578 14.45h-4.202l-8.482-7.931v7.93h-2.782v-10.073h4.349l8.344 7.784v-7.785h2.773z"/></svg>

<svg xmlns="http://www.w3.org/2000/svg" viewBox="0 0 24 24"><path d="M12.004 0H.404v18.807h9.938l1.714 1.602v-.026L15.966 24v-5.193h7.63V0zm7.578 14.45H15.38L6.898 6.519v7.93H4.116V4.376h4.349l8.344 7.784V4.375h2.773z"/></svg>
